X: 136
T: Reel
T: Reel, G
L: 1/16
M: C|
K: G
|: G4B2d2 c2A2F2A2| G2B2d2e2 d4e2f2| g2B2 B1B1B2 e2c2A2c2| B2d2A2F2 G2F2E2D2| 
G4B2d2 c2A2F2A2| G2B2d2e2 d4e2f2| g2B2 B1B1B2 e2c2A2c2| B2d2A2F2 G8:| 
|: g4d2g2 b2g2a2g2| e2c2 c1c1c2 e2f2g2e2| d2B2 B1B1B2 d2B2G2B2| A2A2A2B2 A2F2D2A2| 
g4d2g2 b2g2a2g2| e2c2 c1c1c2 e2f2g2e2| [1 d2B2G2B2 c2A2F2A2| B1c1d2 A2F2 G4G2B2:| [2 d2c2B2d2 c2B2A2c2| B2d2A2F2 G8|| 
D: Mike MacDougall, Tape for Fr. Hector
